Flat-Remix-Blue/mimetypes/scalable/text-x-gtkrc.svg

<svg xmlns="http://www.w3.org/2000/svg" xmlns:xlink="http://www.w3.org/1999/xlink" width="36pt" height="36pt" version="1.1" viewBox="0 0 36 36"> <defs> <clipPath id="clip1"> <path d="M 20 2 L 31 2 L 31 13 L 20 13 Z M 20 2"/> </clipPath> <clipPath id="clip2"> <path d="M 20.515625 2.625 L 30.328125 12.4375 L 22.023438 12.4375 C 21.292969 12.4375 20.515625 11.660156 20.515625 10.929688 Z M 20.515625 2.625"/> </clipPath> <image id="image6" width="36" height="36" xlink:href="data:image/png;base64,iVBORw0KGgoAAAANSUhEUgAAACQAAAAkCAYAAADhAJiYAAAABmJLR0QA/wD/AP+gvaeTAAAAmklEQVRYhe3T0QqCQBBG4aOtYEoUvf9Lildltl00C4tkbBeTIP+BAUEYP1YW1Pcqh53B9kbgaVPcwQF0tAmGSrMZ6AKcDQXw+AUVHEAtcAUaewYYgYmC3+cBCkAPnDJQMcoDVNnebgEqQnmAclTz4d0I3P4JStc9AjXvk4qLWQV53LLeEOl05gw4A3dgcPiuUkoppZRSSqk99gLWvSJpuDnlsAAAAABJRU5ErkJggg=="/> </defs> <g> <path style="fill:rgb(83.137%,9.803%,9.803%)" d="M 7.347656 3.152344 C 6.675781 3.152344 6.042969 3.785156 6.042969 4.457031 L 6.042969 31.847656 C 6.042969 32.480469 6.714844 33.152344 7.347656 33.152344 L 28.21875 33.152344 C 28.851562 33.152344 29.523438 32.480469 29.523438 31.847656 L 29.523438 11.632812 L 21.042969 3.152344 Z M 7.347656 3.152344"/> <g clip-path="url(#clip1)"> <g clip-path="url(#clip2)"> <use xlink:href="#image6"/> </g> </g> <path style="fill:rgb(88.235%,36.862%,36.862%)" d="M 21.042969 3.152344 L 29.523438 11.632812 L 22.347656 11.632812 C 21.714844 11.632812 21.042969 10.960938 21.042969 10.328125 Z M 21.042969 3.152344"/> <path style="fill:rgb(100.000%,100.000%,100.000%)" d="M 23.21875 14.738281 L 23.21875 14.085938 L 12.78125 14.085938 L 12.78125 14.738281 L 12.128906 14.738281 L 12.128906 18 L 12.78125 18 L 12.78125 18.652344 L 23.21875 18.652344 L 23.21875 18 L 23.871094 18 L 23.871094 14.738281 Z M 12.78125 14.738281 L 19.304688 14.738281 L 19.304688 18 L 12.78125 18 Z M 20.609375 15.390625 L 22.566406 15.390625 L 22.566406 16.695312 L 21.914062 16.695312 L 21.914062 17.347656 L 21.261719 17.347656 L 21.261719 16.695312 L 20.609375 16.695312 Z M 20.609375 15.390625"/> <path style="fill:rgb(100.000%,100.000%,100.000%)" d="M 12.78125 20.609375 L 12.78125 21.261719 L 12.128906 21.261719 L 12.128906 25.175781 L 12.78125 25.175781 L 12.78125 25.824219 L 16.695312 25.824219 L 16.695312 25.175781 L 17.347656 25.175781 L 17.347656 21.261719 L 16.695312 21.261719 L 16.695312 20.609375 Z M 16.042969 21.914062 L 16.695312 21.914062 L 16.695312 22.566406 L 16.042969 22.542969 L 16.042969 23.21875 L 15.390625 23.21875 L 15.390625 23.871094 L 14.738281 23.871094 L 14.738281 24.523438 L 14.085938 24.523438 L 14.085938 23.871094 L 13.433594 23.871094 L 13.433594 23.21875 L 14.085938 23.21875 L 14.085938 23.871094 L 14.738281 23.871094 L 14.738281 23.21875 L 15.390625 23.21875 L 15.390625 22.566406 L 16.042969 22.566406 Z M 16.042969 21.914062"/> <path style="fill:rgb(100.000%,100.000%,100.000%)" d="M 19.945312 20.609375 L 19.945312 21.261719 L 22.554688 21.261719 L 22.554688 20.609375 Z M 22.554688 21.261719 L 22.554688 21.914062 L 23.207031 21.914062 L 23.207031 21.261719 Z M 23.207031 21.914062 L 23.207031 24.523438 L 23.859375 24.523438 L 23.859375 21.914062 Z M 23.207031 24.523438 L 22.554688 24.523438 L 22.554688 25.175781 L 23.207031 25.175781 Z M 22.554688 25.175781 L 19.945312 25.175781 L 19.945312 25.824219 L 22.554688 25.824219 Z M 19.945312 25.175781 L 19.945312 24.523438 L 19.292969 24.523438 L 19.292969 25.175781 Z M 19.292969 24.523438 L 19.292969 21.914062 L 18.640625 21.914062 L 18.640625 24.523438 Z M 19.292969 21.914062 L 19.945312 21.914062 L 19.945312 21.261719 L 19.292969 21.261719 Z M 19.292969 21.914062"/> <path style="fill:rgb(100.000%,100.000%,100.000%)" d="M 20.597656 23.871094 L 19.945312 23.871094 L 19.945312 22.566406 L 20.597656 22.566406 L 20.597656 21.914062 L 21.902344 21.914062 L 21.902344 22.566406 L 22.554688 22.566406 L 22.554688 23.871094 L 21.902344 23.871094 L 21.902344 24.523438 L 20.597656 24.523438 Z M 20.597656 23.871094"/> </g> </svg>

<svg width="36pt" height="36pt" version="1.1" viewBox="0 0 36 36" xmlns="http://www.w3.org/2000/svg"><defs><filter id="a" x="-.192" y="-.192" width="1.384" height="1.384" color-interpolation-filters="sRGB"><feGaussianBlur stdDeviation="0.67843748"/></filter></defs><path d="m7.3477 3.1523c-0.67188 0-1.3047 0.63281-1.3047 1.3047v27.391c0 0.63281 0.67188 1.3047 1.3047 1.3047h20.871c0.63281 0 1.3047-0.67188 1.3047-1.3047v-20.215l-8.4805-8.4805z" fill="#d31818"/><path d="m20.668 3.5272 8.4805 8.4805h-7.1758c-0.63281 0-1.3047-0.67187-1.3047-1.3047z" filter="url(#a)" opacity=".2"/><path d="m21.043 3.1523 8.4805 8.4805h-7.1758c-0.63281 0-1.3047-0.67187-1.3047-1.3047z" fill="#e05d5d"/><path d="m23.219 14.738v-0.65234h-10.438v0.65234h-0.65234v3.2617h0.65234v0.65234h10.438v-0.65234h0.65234v-3.2617zm-10.438 0h6.5234v3.2617h-6.5234zm7.8281 0.65234h1.957v1.3047h-0.65234v0.65234h-0.65234v-0.65234h-0.65234z" fill="#fff"/><path d="m12.781 20.609v0.65234h-0.65234v3.9141h0.65234v0.64844h3.9141v-0.64844h0.65234v-3.9141h-0.65234v-0.65234zm3.2617 1.3047h0.65234v0.65234l-0.65234-0.023437v0.67578h-0.65234v0.65234h-0.65234v0.65234h-0.65234v-0.65234h-0.65234v-0.65234h0.65234v0.65234h0.65234v-0.65234h0.65234v-0.65234h0.65234z" fill="#fff"/><path d="m19.945 20.609v0.65234h2.6094v-0.65234zm2.6094 0.65234v0.65234h0.65234v-0.65234zm0.65234 0.65234v2.6094h0.65234v-2.6094zm0 2.6094h-0.65234v0.65234h0.65234zm-0.65234 0.65234h-2.6094v0.64844h2.6094zm-2.6094 0v-0.65234h-0.65234v0.65234zm-0.65234-0.65234v-2.6094h-0.65234v2.6094zm0-2.6094h0.65234v-0.65234h-0.65234z" fill="#fff"/><path d="m20.598 23.871h-0.65234v-1.3047h0.65234v-0.65234h1.3047v0.65234h0.65234v1.3047h-0.65234v0.65234h-1.3047z" fill="#fff"/></svg>
